icons/azuredevops-dark.svg

<svg width="256" height="256" viewBox="0 0 256 256" fill="none" xmlns="http://www.w3.org/2000/svg">
<path d="M196 0H60C26.8629 0 0 26.8629 0 60V196C0 229.137 26.8629 256 60 256H196C229.137 256 256 229.137 256 196V60C256 26.8629 229.137 0 196 0Z" fill="#282828"/>
<path d="M226.938 77.653V175.541L177.719 208.5L101.43 185.787V208.304L58.2437 162.155L184.117 170.205V82.0575L226.938 77.653ZM184.975 82.575L114.353 47.5V70.5115L49.4969 86.094L30.0625 106.495V152.829L57.8781 162.868V103.493L184.975 82.575Z" fill="url(#paint0_linear_37_16)"/>
<defs>
<linearGradient id="paint0_linear_37_16" x1="128.5" y1="207.994" x2="128.5" y2="47.799" gradientUnits="userSpaceOnUse">
<stop stop-color="#0078D4"/>
<stop offset="0.16" stop-color="#1380DA"/>
<stop offset="0.53" stop-color="#3C91E5"/>
<stop offset="0.82" stop-color="#559CEC"/>
<stop offset="1" stop-color="#5EA0EF"/>
</linearGradient>
</defs>
</svg>

<svg xmlns="http://www.w3.org/2000/svg" width="256" height="256" fill="none"><path fill="#282828" d="M196 0H60C26.863 0 0 26.863 0 60v136c0 33.137 26.863 60 60 60h136c33.137 0 60-26.863 60-60V60c0-33.137-26.863-60-60-60"/><path fill="url(#paint0_linear_37_16)" d="M226.938 77.653v97.888L177.719 208.5l-76.289-22.713v22.517l-43.186-46.149 125.873 8.05V82.057zm-41.963 4.922L114.353 47.5v23.011L49.497 86.095l-19.434 20.401v46.334l27.815 10.039v-59.375z"/><defs><linearGradient id="paint0_linear_37_16" x1="128.5" x2="128.5" y1="207.994" y2="47.799" gradientUnits="userSpaceOnUse"><stop stop-color="#0078D4"/><stop offset=".16" stop-color="#1380DA"/><stop offset=".53" stop-color="#3C91E5"/><stop offset=".82" stop-color="#559CEC"/><stop offset="1" stop-color="#5EA0EF"/></linearGradient></defs></svg>
